X:40
T:Buckshot Lake Breakdo
R:reel
C:Bruce Osborne - Dec.  2002
Z:abc by bosborne@kos.net
M:2/4
L:1/8
K:Eb
G/F/|E/B,/G,/B,/ E/B,/E/G/|c/B/=A/c/ BF/G/|A/F/D/B,/ A,/B,/D/F/|E/D/E/F/ GG/F/|\
E/B,/G,/B,/ E/B,/E/G/|c/B/=A/c/ BF/G/|A/F/D/B,/ A,/B,/D/F/|E/D/G/F/ E:|
|:G,/A,/|B,/E/D/E/ B,/E/G/c/|B/G/E/C/ B,F/G/|A/F/D/B,/ A,/B,/D/F/|E/D/E/F/ GG,/A,/|\
B,/E/D/E/ B,/E/G/c/|B/G/E/C/ B,F/G/|A/F/D/B,/ A,/B,/D/F/|E/D/G/F/ E:|
